X:1
T: Gasp\'e
M: C|
L: 1/8
R: reel
K: D
"D"!upbow![fA] z2 !upbow!((3f/g/f/ e2)d2|z!upbow!AFA "D#dim"B2A2|"Em"!downbow![g2B2]z!upbow!gf2e!downbow!(A|"A"B)ABc ((3BdB)A2|
"D"!downbow!f2((3fgf) e2d2|AAFA "D#dim"((3BdB)A2|"Em"g2fa ((3faf) e!upbow!(A |1 "A"B2)!upbow!c2 "D"d4:|[2 "A"B2)!upbow!c2 "D"d2 "D#dim"((3faf)||
"Em"e2f2 "A/C#"gf !downbow!(e2|"D"f2) g2 "Bm"a3(f|"Em"e2)ff "A/C#" gf eA|"F#m"BABc "B7" ((3BdB)A2
"Em"e2f2 "A/C#"gf !downbow!(e2|"D"f2) g2 "Bm"a3|1!upbow!(f|"Em"e2)ff gf e!upbow!(A|"A"B2)!upbow!c2 "D"d2 "D#dim"(3faf:|[2 a|"Em"!downbow!b2 ((3aba) gfe!upbow!(A| "A"B2)!upbow!c2 "D"d4||
